Simply-Green-Circles/scalable/apps/qtdesigner.svg

<svg xmlns="http://www.w3.org/2000/svg" width="48" height="48" viewBox="0 0 12.7 12.7"><path d="M6.34.07a6.29 6.29 0 0 0-6.29 6.3 6.29 6.29 0 0 0 6.3 6.28 6.29 6.29 0 0 0 6.28-6.29A6.29 6.29 0 0 0 6.34.07zm-.01.94a5.4 5.4 0 0 1 5.4 5.4 5.4 5.4 0 0 1-5.4 5.41 5.4 5.4 0 0 1-5.41-5.4A5.4 5.4 0 0 1 6.32 1zM4.38 2.48c-.42 0-.78.06-1.1.2a2.03 2.03 0 0 0-1.22 1.37 3.94 3.94 0 0 0-.03 2.1c.07.3.2.56.36.79a2.05 2.05 0 0 0 1.46.86c.02.3.1.57.2.78a1.7 1.7 0 0 0 1.02.85c.2.06.42.1.64.1h.52V9.1h-.11c-.12 0-.24-.02-.36-.06a.78.78 0 0 1-.32-.2c-.1-.1-.18-.24-.24-.41-.07-.17-.11-.4-.13-.66a2.14 2.14 0 0 0 1.32-.9c.15-.22.26-.48.33-.77a3.61 3.61 0 0 0-.04-2.04 2.3 2.3 0 0 0-.47-.85 2.18 2.18 0 0 0-.78-.54c-.3-.13-.65-.2-1.05-.2zm0 .47a1.05 1.05 0 0 1 .96.58c.1.2.17.42.21.7a5.79 5.79 0 0 1 0 1.86c-.04.28-.11.5-.21.7a1.05 1.05 0 0 1-.96.58c-.23 0-.42-.05-.58-.15-.16-.1-.29-.24-.39-.43a2.3 2.3 0 0 1-.21-.7 5.79 5.79 0 0 1 0-1.87c.04-.27.11-.5.21-.69a1.07 1.07 0 0 1 .97-.58zm3.61 0a1.5 1.5 0 0 1-.33.73.93.93 0 0 1-.72.3v.38h.55v2.33c0 .22.02.4.07.54a.9.9 0 0 0 .22.36c.08.07.18.12.28.16l.65-.65c-.08-.1-.1-.26-.1-.48V4.36h.92v-.5H8.6v-.9H8zm2.53 2.87a.35.35 0 0 0-.25.1l-.53.53 1.16 1.17.53-.53a.35.35 0 0 0 0-.5l-.66-.66a.35.35 0 0 0-.25-.1zm-1.03.88zm0 0L6.3 9.9l1.16 1.16 3.2-3.2L9.5 6.7zm-3.45 3.45l-.25 1.4 1.41-.24-1.16-1.16z" fill="#2ca02c"/></svg>

<?xml version="1.0" encoding="UTF-8" standalone="no"?>
<svg
   xmlns:dc="http://purl.org/dc/elements/1.1/"
   xmlns:cc="http://creativecommons.org/ns#"
   xmlns:rdf="http://www.w3.org/1999/02/22-rdf-syntax-ns#"
   xmlns:svg="http://www.w3.org/2000/svg"
   xmlns="http://www.w3.org/2000/svg"
   xmlns:sodipodi="http://sodipodi.sourceforge.net/DTD/sodipodi-0.dtd"
   xmlns:inkscape="http://www.inkscape.org/namespaces/inkscape"
   width="48"
   height="48"
   viewBox="0 0 12.7 12.7"
   version="1.1"
   id="svg4"
   sodipodi:docname="qtdesigner.svg"
   inkscape:version="0.92.4 (5da689c313, 2019-01-14)">
  <metadata
     id="metadata10">
    <rdf:RDF>
      <cc:Work
         rdf:about="">
        <dc:format>image/svg+xml</dc:format>
        <dc:type
           rdf:resource="http://purl.org/dc/dcmitype/StillImage" />
        <dc:title></dc:title>
      </cc:Work>
    </rdf:RDF>
  </metadata>
  <defs
     id="defs8" />
  <sodipodi:namedview
     pagecolor="#ffffff"
     bordercolor="#666666"
     borderopacity="1"
     objecttolerance="10"
     gridtolerance="10"
     guidetolerance="10"
     inkscape:pageopacity="0"
     inkscape:pageshadow="2"
     inkscape:window-width="1087"
     inkscape:window-height="480"
     id="namedview6"
     showgrid="false"
     inkscape:zoom="4.9166667"
     inkscape:cx="2.1355932"
     inkscape:cy="24"
     inkscape:window-x="0"
     inkscape:window-y="25"
     inkscape:window-maximized="0"
     inkscape:current-layer="svg4" />
  <path
     d="M 6.34,0.07 A 6.29,6.29 0 0 0 0.05,6.37 6.29,6.29 0 0 0 6.35,12.65 6.29,6.29 0 0 0 12.63,6.36 6.29,6.29 0 0 0 6.34,0.07 Z M 6.33,1.01 a 5.4,5.4 0 0 1 5.4,5.4 5.4,5.4 0 0 1 -5.4,5.41 A 5.4,5.4 0 0 1 0.92,6.42 5.4,5.4 0 0 1 6.32,1 Z M 4.38,2.48 c -0.42,0 -0.78,0.06 -1.1,0.2 A 2.03,2.03 0 0 0 2.06,4.05 3.94,3.94 0 0 0 2.03,6.15 c 0.07,0.3 0.2,0.56 0.36,0.79 A 2.05,2.05 0 0 0 3.85,7.8 c 0.02,0.3 0.1,0.57 0.2,0.78 a 1.7,1.7 0 0 0 1.02,0.85 c 0.2,0.06 0.42,0.1 0.64,0.1 H 6.23 V 9.1 H 6.12 C 6,9.1 5.88,9.08 5.76,9.04 A 0.78,0.78 0 0 1 5.44,8.84 C 5.34,8.74 5.26,8.6 5.2,8.43 5.13,8.26 5.09,8.03 5.07,7.77 A 2.14,2.14 0 0 0 6.39,6.87 C 6.54,6.65 6.65,6.39 6.72,6.1 A 3.61,3.61 0 0 0 6.68,4.06 2.3,2.3 0 0 0 6.21,3.21 C 6,2.98 5.74,2.8 5.43,2.67 5.13,2.54 4.78,2.47 4.38,2.47 Z m 0,0.47 a 1.05,1.05 0 0 1 0.96,0.58 c 0.1,0.2 0.17,0.42 0.21,0.7 a 5.79,5.79 0 0 1 0,1.86 C 5.51,6.37 5.44,6.59 5.34,6.79 A 1.05,1.05 0 0 1 4.38,7.37 C 4.15,7.37 3.96,7.32 3.8,7.22 3.64,7.12 3.51,6.98 3.41,6.79 A 2.3,2.3 0 0 1 3.2,6.09 5.79,5.79 0 0 1 3.2,4.22 C 3.24,3.95 3.31,3.72 3.41,3.53 3.51,3.34 3.64,3.2 3.8,3.11 3.96,3.01 4.15,2.95 4.38,2.95 Z m 3.61,0 C 7.92,3.28 7.81,3.52 7.66,3.68 a 0.93,0.93 0 0 1 -0.72,0.3 v 0.38 h 0.55 v 2.33 c 0,0.22 0.02,0.4 0.07,0.54 A 0.9,0.9 0 0 0 7.78,7.59 C 7.86,7.66 7.96,7.71 8.06,7.75 L 8.71,7.1 C 8.63,7 8.61,6.84 8.61,6.62 V 4.36 H 9.53 V 3.86 H 8.6 V 2.96 H 8 Z m 2.53,2.87 a 0.35,0.35 0 0 0 -0.25,0.1 L 9.74,6.45 10.9,7.62 11.43,7.09 a 0.35,0.35 0 0 0 0,-0.5 L 10.77,5.93 A 0.35,0.35 0 0 0 10.52,5.83 Z M 9.49,6.7 Z m 0,0 -3.19,3.2 1.16,1.16 3.2,-3.2 L 9.5,6.7 Z m -3.45,3.45 -0.25,1.4 1.41,-0.24 z"
     id="path2"
     inkscape:connector-curvature="0"
     style="fill:#2ca02c" />
</svg>
